X:325
T: TRINKEN SANG ANAKREON
N: F0557
O: Europa, Mitteleuropa, Deutschland
R: Studenten -, Trink - Lied
M: 2/4
L: 1/16
K: G
 | G3DD2D2 | E2E2D4 |
D3DE2F2 | G4z4 |
A3BA3B | A2B2A4 |
A2A2B2^c2 | d4z4 |
D2D2B3G | G2E2E4 |
D3DE2F2 | G4z4 |
D2D2B3G | G2E2E4 |
D3DE2F2 | G4z4 |
A4D4 | B4G4 |
c3Bc2e2 | d4
B3d | c4A3c | B4
G3B | A4D3D | G4z4

@@@ Tune index: 5756
